storage/app/icons/phosphoricons/duotone/book-open-text-duotone.svg

<svg xmlns="http://www.w3.org/2000/svg" fill="currentColor" viewBox="0 0 256 256"><path d="M232 56v144h-72a32 32 0 0 0-32 32V88a32 32 0 0 1 32-32Z" opacity=".2"/><path d="M232 48h-72a40 40 0 0 0-32 16 40 40 0 0 0-32-16H24a8 8 0 0 0-8 8v144a8 8 0 0 0 8 8h72a24 24 0 0 1 24 24 8 8 0 0 0 16 0 24 24 0 0 1 24-24h72a8 8 0 0 0 8-8V56a8 8 0 0 0-8-8M96 192H32V64h64a24 24 0 0 1 24 24v112a39.8 39.8 0 0 0-24-8m128 0h-64a39.8 39.8 0 0 0-24 8V88a24 24 0 0 1 24-24h64ZM160 88h40a8 8 0 0 1 0 16h-40a8 8 0 0 1 0-16m48 40a8 8 0 0 1-8 8h-40a8 8 0 0 1 0-16h40a8 8 0 0 1 8 8m0 32a8 8 0 0 1-8 8h-40a8 8 0 0 1 0-16h40a8 8 0 0 1 8 8"/></svg>

<svg xmlns="http://www.w3.org/2000/svg" viewBox="0 0 256 256" fill="currentColor"><path d="M232,56V200H160a32,32,0,0,0-32,32V88a32,32,0,0,1,32-32Z" opacity="0.2"/><path d="M232,48H160a40,40,0,0,0-32,16A40,40,0,0,0,96,48H24a8,8,0,0,0-8,8V200a8,8,0,0,0,8,8H96a24,24,0,0,1,24,24,8,8,0,0,0,16,0,24,24,0,0,1,24-24h72a8,8,0,0,0,8-8V56A8,8,0,0,0,232,48ZM96,192H32V64H96a24,24,0,0,1,24,24V200A39.81,39.81,0,0,0,96,192Zm128,0H160a39.81,39.81,0,0,0-24,8V88a24,24,0,0,1,24-24h64ZM160,88h40a8,8,0,0,1,0,16H160a8,8,0,0,1,0-16Zm48,40a8,8,0,0,1-8,8H160a8,8,0,0,1,0-16h40A8,8,0,0,1,208,128Zm0,32a8,8,0,0,1-8,8H160a8,8,0,0,1,0-16h40A8,8,0,0,1,208,160Z"/></svg>
